X: 32
T:Y Polaca Cymraig
T:The Welsh Polaca
M:3/4
L:1/8
Q:150
S:Robin Huw Bowen
A:Wales
Z:brian_martin12345@yahoo.com
K:G
D|DG GG FA|GB dB ce|dB BG GF|GE AG FD|
DG GG FA|GB dB ce|dB BG A/c/B/d/|cD EF G:||
G|Gg fg dB|AB cd cB|Gg fg fe|db a^c d>d|
dd/f/ ed cB|A/B/c/B/ AG FD|dB BG A/c/B/d/|cD EF G:||
